src/lib/packages/icons/src/assets/filled/shopping-basket.svg

<svg width="24" height="24" viewBox="0 0 24 24" fill="none" xmlns="http://www.w3.org/2000/svg">
<path fill-rule="evenodd" clip-rule="evenodd" d="M21 9.00001C21 10.104 20.104 11 19 11H5C3.896 11 3 10.104 3 9.00001C3 7.89601 3.896 7.00001 5 7.00001H6.72803L9.37695 2.61201C9.59095 2.25801 10.052 2.14301 10.406 2.35801C10.76 2.57301 10.875 3.03301 10.66 3.38801L8.479 7.00001H15.53L13.374 3.38401C13.162 3.02901 13.278 2.56801 13.635 2.35601C13.99 2.14501 14.451 2.26001 14.663 2.61701L17.277 7.00101H19C20.104 7.00001 21 7.89601 21 9.00001ZM19.376 12.33L18.77 18.3C18.63 19.83 17.99 21 15.79 21H8.22998C5.98998 21 5.39999 19.83 5.23999 18.3L4.62402 12.331C4.60602 12.154 4.744 12 4.922 12H19.077C19.256 12 19.394 12.154 19.376 12.33ZM10.77 14.5C10.77 14.09 10.43 13.75 10.02 13.75C9.60002 13.75 9.27002 14.09 9.27002 14.5V17.5C9.27002 17.91 9.60002 18.25 10.02 18.25C10.43 18.25 10.77 17.91 10.77 17.5V14.5ZM14.77 14.5C14.77 14.09 14.43 13.75 14.02 13.75C13.6 13.75 13.27 14.09 13.27 14.5V17.5C13.27 17.91 13.6 18.25 14.02 18.25C14.43 18.25 14.77 17.91 14.77 17.5V14.5Z" fill="currentColor"/>
</svg>

<svg xmlns="http://www.w3.org/2000/svg" width="24" height="24" fill="none"><path fill="currentColor" fill-rule="evenodd" d="M21 9a2 2 0 0 1-2 2H5a2 2 0 0 1 0-4h1.728l2.649-4.388a.749.749 0 1 1 1.283.776L8.479 7h7.051l-2.156-3.616a.75.75 0 1 1 1.289-.767l2.614 4.384H19A2 2 0 0 1 21 9Zm-1.624 3.33-.606 5.97c-.14 1.53-.78 2.7-2.98 2.7H8.23c-2.24 0-2.83-1.17-2.99-2.7l-.616-5.969A.3.3 0 0 1 4.922 12h14.155a.3.3 0 0 1 .299.33ZM10.77 14.5a.749.749 0 1 0-1.5 0v3a.749.749 0 1 0 1.5 0v-3Zm4 0a.749.749 0 1 0-1.5 0v3a.749.749 0 1 0 1.5 0v-3Z" clip-rule="evenodd"/></svg>
